X:1
T:Angels Would Tell It
T:Angels Would Tell It
T:Edmund Simon Lorenz
T:Ruth Alleyn, 1895
T:Public Domain Courtesy of the Cyber Hymnal™
T:Public Domain Courtesy of the Cyber Hymnal™
C:Edmund Simon Lorenz
Z:Public Domain
Z:Courtesy of the Cyber Hymnal™
%%score ( 1 2 ) ( 3 4 )
L:1/8
Q:1/4=85
M:4/4
K:C
V:1 treble 
V:2 treble 
V:3 bass 
V:4 bass 
V:1
 [CE][DF][^D^F] | [FA] [EG]4 [CE] [EG][Ec][Fd] | [Ec] [EB]4 z [DB][B,D][CE] | %3
w: 1.~Joy in the|Gos- pel! Glad news of sal-|va- tion! Swift let it|
w: 2.~Pass- ing the|an- gels in bright ranks of|glo- ry, Leav- ing the|
w: 3.~All those who|know it are preach- ers of|Je- sus, Lit- tle or|
w: 4.~Then when He|com- eth to ga- ther His|loved ones, Bear- ing them|
 [DF] [GB]4 [FA] [EG][B,D][C^D] | [CE]3- [CE]2 z [CE][DF][D^F] | [FA] [EG]4 [CE] [EG][Ec][Ge] | %6
w: fly to the ends of the|earth; * Bless- ings from|Hea- ven for ev- er- y|
w: sing- ers with harps in their|hands; * Christ came to|mor- tals and gave them His|
w: big, they should speak in His|name; * Do- ing His|will, for He ev- er- more|
w: back to His home in the|sky, * Out of all|lands will He sum- mon His|
 [Ae] d4 z [^Dc][DB][DA] | [EG] ([Ec]2 [Ec]2) ([CE]/[CE]/) [B,G][CA][DB] | [Ec]3- [Ec]2 z || %9
w: na- tion— An- gels would|tell it, * for * they know its|worth. *|
w: sto- ry: “Tell it to|o- thers * in * ev- er- y|land!” *|
w: sees us; Giv- ing the|pen- nies * to * spread forth His|fame. *|
w: saved sons, Saved thro’ His|child- ren— * shall~it * be you or|I? *|
"^Refrain" [Ec][EG][Ec] | [Ge] [Ec]4 z4 | z6 [Gd][GB][Gd] | [Gf] [Gd]4 z4 | %13
w: ||||
w: ~ ~ ~|~ ~|~ ~ ~|~ ~|
w: ||||
w: ||||
 z3 z2 [Ge] [Ge][Ge][Ge] | [Ff] [Ff]4 [Ff] [Gd][Gd][Ad] | [^Ge] [Ge]4 [Gd] [Ac][Fc][Gc] | %16
w: |||
w: They’d sing hal- le-|lu- jahs, their loud hal- le-|lu- jahs, And spread thro’ the|
w: |||
w: |||
 [Fd] [Fd]4 [Fc] [FB][FA][FB] | [Ec]3- [Ec]2 z2 |] %18
w: ||
w: na- tions His life bring- ing|name. *|
w: ||
w: ||
V:2
 x3 | x9 | x9 | x9 | x9 | x9 | x (A2 F2) x4 | x9 | x6 || x3 | x9 | x9 | x9 | x9 | x9 | x9 | x9 | %17
 x7 |] %18
V:3
 z3 | C,3 C,,3 z3 | G,3 G,,3 z3 | G,3 G,,3 z3 | C,3 C,,3 z3 | C,3 C,,3 z3 | F,3 F,,3 z3 | %7
w: |~ ~|~ ~|~ ~|~ ~|~ ~|~ ~|
 G,3 G,,3 z3 | (C,3 C,,3) || [C,G,][C,C][C,C] | [C,C] [C,G,]4 G,CG,E, | %11
w: ~ ~|~ *|An- gels would|tell it, how grand- ly pro-|
 G,3- G,2 z [G,B,][G,D][G,B,] | [G,D] [G,B,]4 G,DB,G, | C3- C2 CCC[_B,C] | %14
w: claim! * An- gels would|tell it, His glor- i- ous|fame! * * * * *|
 [A,C] ([A,C][A,C]/[A,C]/[A,C] [A,C])[_A,C][G,B,][G,B,][F,A,] | %15
w: |
 [E,B,] ([E,B,][E,B,]/[E,B,]/[E,B,] [E,B,])[F,A,][F,A,][F,A,][E,G,] | %16
w: |
 [D,A,] ([D,A,][D,A,]/[D,A,]/[D,A,] [D,A,])[D,A,]G,G,[G,,G,] | [C,G,]3- [C,G,]2 z2 |] %18
w: ||
V:4
 x3 | x9 | x9 | x9 | x9 | x9 | x9 | x9 | x6 || x3 | x5 G,CG,E, | G,3- G,2 x4 | x5 G,DB,G, | %13
 C3- C2 CCC x | x9 | x9 | x6 G,G, x | x7 |] %18

